packages/kaspersky-hexa-ui-icons/src/iconsSVGs/32/Support.svg

<svg xmlns="http://www.w3.org/2000/svg" width="32" height="32" fill="none" viewBox="0 0 32 32"><path fill="#000" fill-rule="evenodd" d="M29 16c0 7.1797-5.8203 13-13 13S3 23.1797 3 16 8.8203 3 16 3s13 5.8203 13 13m-5.9609 8.4533C21.1316 26.0434 18.6775 27 16 27s-5.1316-.9566-7.039-2.5467l4.2816-4.2817C14.033 20.6951 14.9809 21 16 21s1.967-.3049 2.7574-.8284zm1.4142-1.4142C26.0434 21.1316 27 18.6775 27 16s-.9566-5.1316-2.5467-7.039l-4.2817 4.2816C20.6951 14.033 21 14.9809 21 16s-.3049 1.967-.8284 2.7574zm-12.6249-4.2817-4.2817 4.2817C5.9567 21.1316 5 18.6775 5 16s.9566-5.1316 2.5467-7.039l4.2817 4.2816C11.3049 14.033 11 14.9809 11 16s.3049 1.967.8284 2.7574m1.4142-6.929L8.9609 7.5467C10.8684 5.9567 13.3225 5 16 5s5.1316.9566 7.0391 2.5467l-4.2817 4.2817C17.967 11.3049 17.0191 11 16 11s-1.967.3049-2.7574.8284M13 16c0-1.6569 1.3431-3 3-3s3 1.3431 3 3-1.3431 3-3 3-3-1.3431-3-3"/></svg>

<svg width="32" height="32" viewBox="0 0 32 32" fill="none" xmlns="http://www.w3.org/2000/svg">
<path fill-rule="evenodd" clip-rule="evenodd" d="M29 16C29 23.1797 23.1797 29 16 29C8.8203 29 3 23.1797 3 16C3 8.8203 8.8203 3 16 3C23.1797 3 29 8.8203 29 16ZM23.0391 24.4533C21.1316 26.0434 18.6775 27 16 27C13.3225 27 10.8684 26.0434 8.96094 24.4533L13.2426 20.1716C14.033 20.6951 14.9809 21 16 21C17.0191 21 17.967 20.6951 18.7574 20.1716L23.0391 24.4533ZM24.4533 23.0391C26.0434 21.1316 27 18.6775 27 16C27 13.3225 26.0434 10.8684 24.4533 8.96094L20.1716 13.2426C20.6951 14.033 21 14.9809 21 16C21 17.0191 20.6951 17.967 20.1716 18.7574L24.4533 23.0391ZM11.8284 18.7574L7.54673 23.0391C5.95662 21.1316 5 18.6775 5 16C5 13.3225 5.95662 10.8684 7.54673 8.96094L11.8284 13.2426C11.3049 14.033 11 14.9809 11 16C11 17.0191 11.3049 17.967 11.8284 18.7574ZM13.2426 11.8284L8.96094 7.54673C10.8684 5.95662 13.3225 5 16 5C18.6775 5 21.1316 5.95662 23.0391 7.54673L18.7574 11.8284C17.967 11.3049 17.0191 11 16 11C14.9809 11 14.033 11.3049 13.2426 11.8284ZM13 16C13 14.3431 14.3431 13 16 13C17.6569 13 19 14.3431 19 16C19 17.6569 17.6569 19 16 19C14.3431 19 13 17.6569 13 16Z" fill="black"/>
</svg>
